X:1
T:Title
%%score { 1 | 2 }
L:1/8
M:3/4
K:F
V:1 treble nm="Grand Piano"
V:2 bass 
V:1
 z2 z2[Q:1/4=100] A2 | c>c c2 F2 | A>A A2 F2 | [EG]3 [EG] [FA][GB] |[M:2/4] [FA]4 |[M:1/4] [FA]2 | %6
[M:3/4] [GB]>[GB] [GB]2 [EG]2 | [FA]>[GB] [Ac]2 [Fc]2 | [Fd]>[Fd] [Fd]2 [Fc]2 | %9
 [CGB]>[CFA] [CEG]2 [CEc]2 | [CFA]3 [DFB] [CFA][B,CG] |[M:2/4] [A,CF]4 |] %12
V:2
 z2 z2 [F,CF]2 | [F,A,F]>[F,A,F] [F,A,F]2 [F,A,C]2 | [F,CF]>[F,CF] [F,CF]2 [F,A,]2 | %3
 [C,C]3 [C,C] [C,C][C,C] |[M:2/4] [F,C]4 |[M:1/4] [F,C]2 |[M:3/4] [C,C]>[C,C] [C,C]2 [C,C]2 | %7
 [F,C]>[F,C] [F,C]2 [F,A,]2 | [B,,B,]>[B,,B,] [B,,B,]2 [F,A,]2 | E,>F, C,2 C,2 | F,3 B,, C,C, | %11
[M:2/4] F,4 |] %12

